!!!Rep U0534
!!!Isim(Name): Seher Vakti Bülbül Ağlar Ekseri
!!!Yore(Region): Kastamonu
!!!Makam: Karciğar
!!!Donanim(Key Signature): b-2 e- f#
!!!Usul: Serbest
**kern	**Dcent
*staff1	*.
=1-	=1-
*clefG2	*.
*k[b-e-f#]	*.
*MX/X	*.
16ff#Q	0
8ggQ	0
8ggQ	0
16ggQ	0
8ggQ	0
8ggQ	0
ff#q	0
8ggQ	0
16ggQ	0
8ggQ	0
8.ggQ	0
16ff#Q	0
8ee-Q	0
4rQ	.
8rQ	.
!!linebreak:default
8ggQ	0
2ggQ	0
8ggQ	0
8ff#Q	0
8ggQ	0
8ff#Q	0
8ggQ	0
8ff#Q	0
8ggQ	0
8ff#Q	0
16ff#Q	0
16ggQ	0
2aaQ	0
16cccQ	0
16bb-Q	50
16aaQ	0
16ggQ	0
16ff#Q	0
16ggQ	0
!!linebreak:default
2ee-Q	0
4ee-Q	0
8ddQ	0
8ee-Q	0
8ddQ	0
8ee-Q	0
4ddQ;	0
16ggQ	0
16ff#Q	0
16ee-Q	0
16ddQ	0
16ccQ	0
16b-Q	50
8ccQ	0
4rQ;	.
8rQ	.
4ee-Q	0
8ddQ	0
!!linebreak:default
16ee-Q	0
8ddQ	0
8ddQ	0
16ddQ	0
16ddQ	0
16ddQ	0
8ddQ	0
8ddQ	0
16ee-Q	0
8ddQ	0
16ee-Q	0
16ddQ	0
32ccQ	0
32ddQ	0
16ccQ	0
16b-Q	50
8ccQ	0
16ccQ	0
!!linebreak:default
16b-Q	50
16ccQ	0
8ddQ	0
8ddQ	0
16ddQ	0
16ddQ	0
16ee-Q	0
16ccQ	0
16b-Q	50
8ccQ	0
bq	0
8ccQ	0
8ccQ	0
16ccQ	0
16ccQ	0
16ccQ	0
16b-Q	50
16ccQ	0
4rQ	.
8rQ	.
!!linebreak:default
16b-Q	50
8ccQ	0
8ccQ	0
8ccQ	0
16ccQ	0
16ccQ	0
8ccQ	0
8ccQ	0
16b-Q	50
16ccQ	0
16ddQ	0
16ee-Q	0
16ddQ	0
32ccQ	0
32ddQ	0
16ccQ	0
16b-Q	50
8ccQ	0
16b-Q	50
!!linebreak:default
8rQ	.
16ccQ	0
8ddQ	0
16ccQ	0
8b-Q	50
8.aQ	0
32ddQ	0
16.ccQ	0
32ddQ	0
8b-Q	50
16aQ	0
=2	=2
*M4/4	*.
1a	0
=3|:	=3|:
8g	0
8a	0
8b-	50
8cc	0
8dd	0
8ee-	0
4dd	0
=4	=4
!!pagebreak:default
8dd	0
16dd	0
16ff#	0
8ee-	0
16dd	0
16cc	0
4dd	0
4dd	0
=5	=5
8dd	0
16dd	0
16ff#	0
8ee-	0
16dd	0
16cc	0
4dd	0
4r	.
=6:!	=6:!
8cc	0
4.cc	0
8cc	0
8r	.
4cc	0
=7	=7
!!linebreak:default
8cc	0
4cc	0
8b-	50
8cc	0
8cc	0
8b-	50
8cc	0
=8	=8
8cc	0
4dd	0
8dd	0
ccq	0
2b-	50
=9	=9
8b-	50
8a	0
8a	0
8dd	0
8cc	0
8dd	0
8b-	50
8a	0
=10	=10
!!linebreak:default
1a	0
=11|:	=11|:
8g	0
8a	0
8b-	50
8cc	0
4dd	0
8ee-	0
8dd	0
=12	=12
8dd	0
16dd	0
16ff#	0
8ee-	0
16dd	0
16cc	0
4dd	0
4dd	0
=13	=13
8dd	0
16dd	0
16ff#	0
8ee-	0
16dd	0
16cc	0
4dd	0
4r	.
=14|:	=14|:
!!linebreak:default
8r	.
16gg	0
16gg	0
8gg	0
8gg	0
8ff#	0
8gg	0
8aa	0
8bb-	50
=15	=15
8aa	0
16gg	0
16gg	0
8gg	0
8ff#	0
8ee-	0
8dd	0
4cc	0
=16	=16
1cc	0
=17	=17
8b-	50
8cc	0
8dd	0
8cc	0
2b-	50
=18	=18
!!linebreak:default
4b-	50
4a	0
8dd	0
8cc	0
8b-	50
8a	0
=19	=19
1a	0
*-	*-
!! Uzun Hava Humdrum Bilgi Bankasi (Uzun Hava Humdrum Database)
!! 
!! Sertan Senturk, Parag Chordia & Erdal Tugcular
!! Georgia Tech Center for Music Technology, 2011